icon-themes/breeze_svg/cmd/32/deletepage.svg

<svg viewBox="0 0 32 32" xmlns="http://www.w3.org/2000/svg"><path d="m4 6v12 1l7 7h1 7v-1h-7v-7h-7v-11h22v12h1v-13z" fill="#4d4d4d"/><path d="m20.707031 20-.707031.707031 3.292969 3.292969-3.292969 3.292969c.0126.0252.707031.707031.707031.707031l3.292969-3.292969 3.292969 3.292969.707031-.707031-3.292969-3.292969 3.292969-3.292969-.707031-.707031-3.292969 3.292969z" fill="#da4453"/></svg>

<svg xmlns="http://www.w3.org/2000/svg" viewBox="0 0 32 32">
 <path 
     style="fill:#4d4d4d" 
     d="M 4 6 L 4 18 L 4 19 L 11 26 L 12 26 L 19 26 L 19 25 L 12 25 L 12 18 L 5 18 L 5 7 L 27 7 L 27 19 L 28 19 L 28 6 L 4 6 z "
     />
 <path 
     style="fill:#da4453" 
     d="M 20.707031 20 L 20 20.707031 L 23.292969 24 L 20 27.292969 C 20.0126 27.318169 20.707031 28 20.707031 28 L 24 24.707031 L 27.292969 28 L 28 27.292969 L 24.707031 24 L 28 20.707031 L 27.292969 20 L 24 23.292969 L 20.707031 20 z "
     />
</svg>
